packages/bezier-icons/icons/fast-rewind.svg

<svg width="24" height="24" viewBox="0 0 24 24" fill="none" xmlns="http://www.w3.org/2000/svg">
<path fill-rule="evenodd" clip-rule="evenodd" d="M10.2785 4.24916C11.4415 3.47439 12.9987 4.30813 12.9987 5.70558V9.09877L20.2785 4.24916C21.4415 3.47439 22.9987 4.30813 22.9987 5.70558V18.2945C22.9987 19.6919 21.4415 20.5257 20.2785 19.7509L12.9987 14.9013V18.2945C12.9987 19.6919 11.4415 20.5257 10.2785 19.7509L0.82988 13.4564C-0.209818 12.7638 -0.209809 11.2362 0.829879 10.5436L10.2785 4.24916ZM10.9987 6.17252L2.25103 12L10.9987 17.8275V6.17252ZM12.251 12L20.9987 17.8275V6.17252L12.251 12Z" fill="#313234"/>
</svg>

<svg xmlns="http://www.w3.org/2000/svg" width="24" height="24" fill="none" viewBox="0 0 24 24"><path fill="#313234" fill-rule="evenodd" d="M10.279 4.25c1.162-.776 2.72.058 2.72 1.456v3.393l7.28-4.85c1.163-.775 2.72.06 2.72 1.457v12.588c0 1.398-1.557 2.232-2.72 1.457l-7.28-4.85v3.393c0 1.398-1.558 2.232-2.72 1.457l-9.45-6.295a1.75 1.75 0 0 1 0-2.912zm.72 1.923L2.25 12l8.748 5.828zM12.25 12l8.748 5.828V6.173z" clip-rule="evenodd"/></svg>
